icons/op-mention-24.svg

<svg width="24" height="24" viewBox="0 0 24 24" fill="none" xmlns="http://www.w3.org/2000/svg">
<path fill-rule="evenodd" clip-rule="evenodd" d="M4 12C4 7.58161 7.58161 4 12 4C16.4184 4 20 7.58161 20 12C20 12.0033 20 12.0065 19.9999 12.0098C19.9981 12.5073 19.855 13.2288 19.4058 13.8527C18.921 14.526 18.1208 15.0222 16.9778 15.0222C16.1038 15.0222 15.4304 14.7321 14.945 14.2947C14.2618 15.1703 13.1966 15.7333 11.9999 15.7333C9.93807 15.7333 8.2666 14.0619 8.2666 12C8.2666 9.93813 9.93807 8.26666 11.9999 8.26666C12.7394 8.26666 13.4286 8.48164 14.0086 8.8525C14.1325 8.51079 14.4599 8.26666 14.8445 8.26666C15.3354 8.26666 15.7333 8.66463 15.7333 9.15555V12C15.7333 12.2133 15.8047 12.5531 15.9925 12.814C16.1477 13.0295 16.4142 13.2444 16.9778 13.2444C17.5414 13.2444 17.8079 13.0295 17.9631 12.814C18.1509 12.5531 18.2222 12.2133 18.2222 12C18.2222 11.9976 18.2222 11.9952 18.2222 11.9928C18.2183 8.55957 15.4341 5.77778 12 5.77778C8.56345 5.77778 5.77778 8.56345 5.77778 12C5.77778 15.4365 8.56345 18.2222 12 18.2222C13.4024 18.2222 14.6938 17.7596 15.7333 16.9783C16.1257 16.6834 16.683 16.7624 16.9779 17.1548C17.2729 17.5472 17.1939 18.1045 16.8015 18.3994C15.4644 19.4045 13.8005 20 12 20C7.58161 20 4 16.4184 4 12ZM11.9999 10.0444C10.9199 10.0444 10.0443 10.92 10.0443 12C10.0443 13.08 10.9199 13.9556 11.9999 13.9556C13.0799 13.9556 13.9555 13.08 13.9555 12C13.9555 10.92 13.0799 10.0444 11.9999 10.0444Z" fill="black"/>
</svg>

<svg xmlns="http://www.w3.org/2000/svg" width="24" height="24" viewBox="0 0 24 24"><path d="M4 12a8 8 0 0 1 16 0v.01a3.275 3.275 0 0 1-.594 1.843c-.485.673-1.285 1.169-2.428 1.169-.874 0-1.548-.29-2.033-.727a3.733 3.733 0 1 1-.936-5.443.888.888 0 0 1 1.724.304V12c0 .213.072.553.26.814.155.216.421.43.985.43.563 0 .83-.214.985-.43.188-.261.259-.601.259-.814v-.007a6.222 6.222 0 1 0-2.489 4.985.889.889 0 0 1 1.069 1.421A8 8 0 0 1 4 12Zm8-1.956a1.956 1.956 0 1 0 0 3.913 1.956 1.956 0 0 0 0-3.913Z"/></svg>
